X: 94
T: Sepe expugnaverunt me
N: Derived from Mar2084-Sepe_expugnaverunt_me.krn
C: Johannes Martini
%%abc-version 2.0
%%abcx-abcm2ps-target-version 5.9.1 (29 Sep 2008)
%%abc-creator hum2abc beta
%%abcx-conversion-date 2019/02/17 07:19:42
%%abc-edited-by Jesse Rodin
%%abc-edited-by Chris Gage 02-10-2014
%%abcx-initial-encoding-date 2014/10/06/
%%humdrum-veritas 1560755788
%%humdrum-veritas-data 3356301735
%%linebreak <none>
%%barnumbers 0
L: 1/4
M: 4/2
Q: 1/2=120
%%staves {1 2}
V: 1 clef=treble
V: 2 clef=treble-8
K: C
[V:1] A4G4 | 
[V:2] A4B4 | 
[V:1] A2B2G2A2- | 
[V:2] c2d2B2c2 | 
[V:1] A2GFE2F2- | 
[V:2] A4G2A2- | 
[V:1] F2E4D2 | 
[V:2] AGE2F4 | 
[V:1] E8 ||  
[V:2] E8 ||  
[V:1] A4A4 | 
[V:2] A4c4 | 
[V:1] A4A2A2 | 
[V:2] c4c2c2 | 
[V:1] A2A2A4 | 
[V:2] c2c2A4 | 
[V:1] A2A2G2A2 | 
[V:2] c2c2B2c2 | 
[V:1] B2A4^G2 | 
[V:2] d2A2B4 | 
[V:1] A4z4 | 
[V:2] A4z4 | 
[V:1] A4A2A2 | 
[V:2] c4c2c2 | 
[V:1] G4A2B2 | 
[V:2] B4c2d2 | 
[V:1] G2A4GF | 
[V:2] B2c2A4 | 
[V:1] E2F3EE2- | 
[V:2] G2A3GE2 | 
[V:1] E2D2E4 ||  
[V:2] F4E4 ||  
[V:1] A2A2A2A2 | 
[V:2] A2A2c2c2 | 
[V:1] A4A4 | 
[V:2] c4c4 | 
[V:1] A2A2A2A2 | 
[V:2] c2c2c2c2 | 
[V:1] A4A2B2- | 
[V:2] A4c2d2- | 
[V:1] B2A4^G2 | 
[V:2] d2c2B4 | 
[V:1] A4z4 | 
[V:2] A4z4 | 
[V:1] A2A2A2A2 | 
[V:2] c2c2c2c2 | 
[V:1] A4G4 | 
[V:2] c4B4 | 
[V:1] A2B2G2A2- | 
[V:2] c2d2B2c2 | 
[V:1] A2GFE2F2- | 
[V:2] A4G2A2- | 
[V:1] FEE4D2 | 
[V:2] AGE2F4 | 
[V:1] E8 ||  
[V:2] E8 ||  
[V:1] A4A2A2 | 
[V:2] A4c2c2 | 
[V:1] A4A4 | 
[V:2] c4A4 | 
[V:1] A4A2A2 | 
[V:2] c4c2c2 | 
[V:1] A2A2A4 | 
[V:2] c2c2c4 | 
[V:1] G4A2B2- | 
[V:2] B4c2d2- | 
[V:1] B2A4^G2 | 
[V:2] d2c2B4 | 
[V:1] A4z4 | 
[V:2] A4z4 | 
[V:1] A2A2A4 | 
[V:2] c2c2c4 | 
[V:1] A4G2A2 | 
[V:2] c4B2c2 | 
[V:1] B2G2A2GF | 
[V:2] d2B2c2BA | 
[V:1] E2F3EE2- | 
[V:2] G2A3GE2 | 
[V:1] E2D2E4 ||  
[V:2] F4E4 ||  
[V:1] A4A4 | 
[V:2] A4c4 | 
[V:1] A2A2A4 | 
[V:2] c2c2c4 | 
[V:1] G2A2B4 | 
[V:2] B2c2d4 | 
[V:1] A4z4 | 
[V:2] A4z4 | 
[V:1] A4A2A2 | 
[V:2] c4c2c2 | 
[V:1] A4G2A2 | 
[V:2] c4B2c2 | 
[V:1] B2G2A2GF | 
[V:2] d2B2c2BA | 
[V:1] E2F3EE2- | 
[V:2] G2A3GE2 | 
[V:1] E2D2E4 ||  
[V:2] F4E4 ||  
[V:1] A2A2A2A2 | 
[V:2] A2A2c2c2 | 
[V:1] A4A4 | 
[V:2] c4c4 | 
[V:1] A2G2A2B2- | 
[V:2] A2B2c2d2- | 
[V:1] B2A4^G2 | 
[V:2] d2c2B4 | 
[V:1] A4z4 | 
[V:2] A4z4 | 
[V:1] A4A2A2 | 
[V:2] c4c2c2 | 
[V:1] A4A4 | 
[V:2] c4A4 | 
[V:1] G4A2B2 | 
[V:2] B4c2d2 | 
[V:1] G2A4GF | 
[V:2] B2c2A4 | 
[V:1] E2F3EE2- | 
[V:2] G2A3GE2 | 
[V:1] E2D2E4 ||  
[V:2] F4E4 ||  
[V:1] A4A2A2 | 
[V:2] A4c2c2 | 
[V:1] A4A4 | 
[V:2] c4c4 | 
[V:1] A2A2A2A2 | 
[V:2] c2c2c2c2 | 
[V:1] A4A4 | 
[V:2] c4A4 | 
[V:1] A2A2A2A2 | 
[V:2] c2c2c2c2 | 
[V:1] A2A2A4 | 
[V:2] c2c2c4 | 
[V:1] B2c4B2- | 
[V:2] d2e3dB2 | 
[V:1] B2A2B4 | 
[V:2] c4B4 | 
[V:1] z4A2A2 | 
[V:2] z4c2c2 | 
[V:1] A2A2A2A2 | 
[V:2] c2c2c2c2 | 
[V:1] A4B4 | 
[V:2] c4B4 | 
[V:1] A2B2G2A2- | 
[V:2] c2d2B2c2 | 
[V:1] A2GFE2F2- | 
[V:2] A4G2A2- | 
[V:1] FEE4D2 | 
[V:2] AGE2F4 | 
[V:1] E8 ||  
[V:2] E8 ||  
[V:1] A4A2A2 | 
[V:2] A4c2c2 | 
[V:1] A4G4 | 
[V:2] c4B4 | 
[V:1] A4B2c2- | 
[V:2] c4d2e2- | 
[V:1] c2BAG2A2- | 
[V:2] e2dcB2A2 | 
[V:1] A2^G2A4 | 
[V:2] B4A4 | 
[V:1] z4A4 | 
[V:2] z4c4 | 
[V:1] G4A2B2 | 
[V:2] B4c2d2 | 
[V:1] G2A4GF | 
[V:2] B2c2A4 | 
[V:1] E2F3EE2- | 
[V:2] G2A3GE2 | 
[V:1] E2D2E4 ||  
[V:2] F4E4 ||  
[V:1] A2A2A2A2 | 
[V:2] A2A2c2c2 | 
[V:1] A2A2A2A2 | 
[V:2] c2c2c2c2 | 
[V:1] A4G2A2 | 
[V:2] c4B2c2 | 
[V:1] B2A4^G2 | 
[V:2] d2c2B4 | 
[V:1] A4z4 | 
[V:2] A4z4 | 
[V:1] A2A2A4 | 
[V:2] c2c2c4 | 
[V:1] G2A4G2 | 
[V:2] B2c2A2B2 | 
[V:1] E2F4E2- | 
[V:2] G2A4G2 | 
[V:1] E2D2E4 |]  
[V:2] F4E4 |]  



